!!!COM: Stadler, Maximilian
!!!CDT: 1748///-1833///
!!!COA: Haydn, Joseph
!!!OTL@@IT: Gioco filarmonico
!!!OTL@EN: Philharmonic Joke
!!!OTA@@IT: o sia maniera facile per comporre un infinito numero de minuetti e trio anche senza sapere il contrapunto
!!!OTA@EN: or the Art of Composing an Infinite Number of Minutes Without the Least Knowledge of Counterpoint
!!!PDT: 1781///
!!!PPR: Artaria
!!!SML: Gesellschaft der Musikfreundes, Vienna
!!!PPR2: Luigi Marescalchi
!!!PPP2: Napoli
!!!PDT2: 1790///
**kern	**kern	**kern
*Icello	*Ivioln	*Ivioln
*>[A,A,B,B,A]	*>[A,A,B,B,A]	*>[A,A,B,B,A]
*>norep[A,B]	*>norep[A,B]	*>norep[A,B]
*>A	*>A	*>A
*k[]	*k[]	*k[]
*M3/4	*M3/4	*M3/4
*MM120	*MM120	*MM120
!!section:  I
!!measure:  A
!!diceroll: 8
=152	=152	=152
4r	4e	12gg
.	.	12ee
.	.	12cc
4E	4c	4g
4C	4e	4cc
!!section:  I
!!measure:  B
!!diceroll: 6
=74	=74	=74
2F	2e	8cc
.	.	8b
.	.	8gg
.	.	8b
4E	4e	4cc
!!section:  I
!!measure:  C
!!diceroll: 8
=171	=171	=171
4A	4c	4ff
4B	4d	16gg
.	.	16ff
.	.	16ee
.	.	16dd
4c	4g	16ff
.	.	16ee
.	.	16dd
.	.	16cc
!!section:  I
!!measure:  D
!!diceroll: 11
=61	=61	=61
4r	4e	4g
4GG	4d	4f
4C	4c	4e
!!section:  I
!!measure:  E
!!diceroll: 8
=99	=99	=99
4C	12c	4ee
.	12e	.
.	12a	.
4C	12c	8dd
.	12e	.
.	.	8cc
.	12a	.
4C	12c	8b
.	12e	.
.	.	8a
.	12a	.
!!section:  I
!!measure:  F
!!diceroll: 5
=2	=2	=2
2.BB	4r	8r
.	.	8d
.	4d	8f#
.	.	8g
.	4g	8b
.	.	8dd
!!section:  I
!!measure:  G
!!diceroll: 10
=62	=62	=62
4GG	12b	12dd
.	12b	12gg
.	12dd	12ff#
4C	12cc	12ee
.	12bb	12dd
.	12a	12cc
4D	12g	12b
.	12a	12cc
.	12ff#	12a
!!section:  I
!!measure:  H
!!diceroll: 3
=81	=81	=81
4GG	2.g	2.g
4D	.	.
4G	.	.
*>B	*>B	*>B
!!section:  II
!!measure:  A
!!diceroll: 6
=25	=25	=25
4E	4c#	4g
4r	4r	16gg
.	.	16ff
.	.	16ee
.	.	16dd
4A	4e	4cc#
!!section:  II
!!measure:  B
!!diceroll: 5
=176	=176	=176
4D	12d	8ee
.	12f	.
.	.	8ff
.	12a	.
4D	12d	2dd
.	12f	.
.	12a	.
4D	12d	.
.	12f	.
.	12a	.
!!section:  II
!!measure:  C
!!diceroll: 10
=19	=19	=19
4r	4r	8b
.	.	8dd
4F	4g	8r
.	.	8dd
4F	4g	16cc
.	.	16b
.	.	16a
.	.	16g
!!section:  II
!!measure:  D
!!diceroll: 4
=132	=132	=132
4C	16cc	16cc
.	16e	16g
.	16f	16a
.	16g	16b
4r	16a	16cc
.	16b	16dd
.	16cc	16ee
.	16dd	16ff
4r	4ee	4gg
!!section:  II
!!measure:  E
!!diceroll: 5
=67	=67	=67
4C	2.cc	2.cc
4G	.	.
4c	.	.
!!section:  II
!!measure:  F
!!diceroll: 8
=168	=168	=168
4E	4c	8gg
.	.	8g
4D	4B	8ff
.	.	8f
4C	4c	4e
!!section:  II
!!measure:  G
!!diceroll: 7
=23	=23	=23
4F	4c	16a
.	.	16aa
.	.	16gg
.	.	16ff
4G	4c	4ee
4G	4B	4dd
!!section:  II
!!measure:  H
!!diceroll: 4
=79	=79	=79
8r	2.cc	2.cc
8C	.	.
8E	.	.
8G	.	.
4c	.	.
*-	*-	*-
!!!END: 2004/11/01/
